Sources/FrostedUI/Resources/Icons.xcassets/stickerFilled16.imageset/sticker-filled-16.svg

<svg width="16" height="16" viewBox="0 0 16 16" fill="none" xmlns="http://www.w3.org/2000/svg" data-fui-icon="true">
  <g clip-path="url(#clip0_6194_376)">
    <path
      d="M9.79477 0.123774C12.1839 -0.427615 14.5677 1.06256 15.1193 3.45174L15.5839 5.4641C15.6329 5.67648 15.5005 5.8884 15.2881 5.93743L11.3404 6.84885C9.4822 7.27795 8.32364 9.13205 8.75252 10.9903L9.66394 14.938C9.71297 15.1504 9.58055 15.3623 9.36817 15.4114L7.3558 15.876C4.96662 16.4275 2.58228 14.9383 2.03052 12.5492L0.698831 6.78097C0.147218 4.39167 1.63728 2.00708 4.02657 1.45547L9.79477 0.123774ZM15.1943 7.49856C15.4577 7.43773 15.7027 7.65406 15.6603 7.92113C15.2446 10.5399 13.7815 12.8814 11.61 14.4029C11.3885 14.5581 11.0867 14.4328 11.0259 14.1693L10.2141 10.6528C9.97155 9.60181 10.6268 8.55315 11.6778 8.3104L15.1943 7.49856Z"
      fill="currentColor"
    />
  </g>
  <defs>
    <clipPath id="clip0_6194_376"><path fill="currentColor" d="M0 0H16V16H0z" /></clipPath>
  </defs>
</svg>

<svg xmlns="http://www.w3.org/2000/svg" width="16" height="16" fill="none" data-fui-icon="true" viewBox="0 0 16 16"><g clip-path="url(#a)"><path fill="currentColor" d="M9.795.124a4.44 4.44 0 0 1 5.324 3.328l.465 2.012a.395.395 0 0 1-.296.473l-3.948.912a3.453 3.453 0 0 0-2.587 4.141l.91 3.948a.395.395 0 0 1-.295.473l-2.012.465a4.44 4.44 0 0 1-5.325-3.327L.699 6.781a4.44 4.44 0 0 1 3.328-5.326zm5.4 7.375a.378.378 0 0 1 .465.422 9.8 9.8 0 0 1-4.05 6.482.378.378 0 0 1-.584-.234l-.812-3.516a1.953 1.953 0 0 1 1.464-2.343z"/></g><defs><clipPath id="a"><path fill="currentColor" d="M0 0h16v16H0z"/></clipPath></defs></svg>
